images/plane__svg.svg

<svg width="81" height="90" viewBox="0 0 81 90" fill="none" xmlns="http://www.w3.org/2000/svg">
<path fill-rule="evenodd" clip-rule="evenodd" d="M36.52 65.796C38.0565 69.2269 39.2942 72.7753 40.22 76.4043C42.92 87.0126 32.82 89.2789 32.82 89.2789L21.56 71.2544L1.79 65.8828C1.79 65.8828 3.55 55.6216 12.39 55.9881C16 56.1328 19.99 56.4992 23.45 56.885C26.03 53.1335 29.39 48.2054 33 43.0845L0 32.1676C0 32.1676 2 16.4866 19.1 20.0452C26.29 21.54 37.34 23.652 45.71 25.224C48.56 21.3664 51.11 18.0007 53.06 15.6572C61.14 6.00362 73.87 -1.63437 78.33 1.80851C82.79 5.25139 79.14 19.3797 71.03 29.149C65.14 36.3241 46.27 55.8049 36.52 65.796ZM74.94 62.1216C81.14 74.5527 66.14 82.7596 66.14 82.7596L48 53.9593L54.8794 46.7772L61.7014 39.5442C64.7814 45.562 72.23 56.75 74.94 62.1602V62.1216Z" fill="url(#paint0_linear_309_1249)"/>
<defs>
<linearGradient id="paint0_linear_309_1249" x1="29.2419" y1="97.9938" x2="113.556" y2="59.8807" gradientUnits="userSpaceOnUse">
<stop stop-color="white"/>
<stop offset="1" stop-color="#AED3FF"/>
</linearGradient>
</defs>
</svg>

<svg xmlns="http://www.w3.org/2000/svg" width="81" height="90" fill="none"><path fill="url(#a)" fill-rule="evenodd" d="M36.52 65.796a65.671 65.671 0 0 1 3.7 10.608c2.7 10.609-7.4 12.875-7.4 12.875L21.56 71.254 1.79 65.883s1.76-10.261 10.6-9.895c3.61.145 7.6.511 11.06.897 2.58-3.752 5.94-8.68 9.55-13.8L0 32.167s2-15.681 19.1-12.123c7.19 1.495 18.24 3.607 26.61 5.179 2.85-3.858 5.4-7.223 7.35-9.567C61.14 6.004 73.87-1.634 78.33 1.81c4.46 3.442.81 17.57-7.3 27.34-5.89 7.175-24.76 26.656-34.51 36.647Zm38.42-3.674c6.2 12.43-8.8 20.638-8.8 20.638L48 53.96l6.88-7.183 6.821-7.233C64.781 45.562 72.23 56.75 74.94 62.16v-.038Z" clip-rule="evenodd"/><defs><linearGradient id="a" x1="29.242" x2="113.556" y1="97.994" y2="59.881" gradientUnits="userSpaceOnUse"><stop stop-color="#fff"/><stop offset="1" stop-color="#AED3FF"/></linearGradient></defs></svg>
